X: 33
T: Battering Ram [The]
M: 6/8
L: 1/8
R: Jig
K: G
B|dBG BAG|dBG G2 B|dBG AGE|GED D2 B|
dBG BAG|BdB BAG|AGA BAB|GED D2 :|
B|deg aga|bge edB|deg aga|bge ega|
bag age|ged ege|dBG AGE|GED D2 :|
c|B2 G A2 G|B2 D D2 c|BAG AGE|GED Ddc|
B2 G A2 G|BdB BAG|AGA BAB|GED D2 :|
